X:1
T:Title
%%score { ( 1 3 5 ) | ( 2 4 6 ) }
L:1/8
M:4/4
K:C
V:1 treble nm="Grand Piano"
V:3 treble 
V:5 treble 
V:2 bass 
V:4 bass 
V:6 bass 
V:1
 z4 z2[Q:1/4=100] G2 | c2 BA G2 E2 | FGAB c2 [Ge]2 | [Gd]3 [Ge] [^Fd]2 [FA]2 | d4 G2 G2 | %5
 c2 BA G2 E2 | FGAB c2 [EGc]2 | z2 .d2 z4 |[M:9/8] [C^FA]3- [CFA] [B,G]2- [B,G] G2 | %9
[M:4/4] z2 z d ^c2 d2 | .[Ee]2 .[CEc]2 [EG]2 [EG]2 | z2 z d B2 G2 | [Ec]4 [Ee]2 G2 | c2 ec A2 A2 | %14
 A2 cA F2 F2 | E3 E C2 D2 |[M:5/4] E4 E6 |[M:4/4] [Ec]2 [EB]2 [EA]2 [CE]2 | z4 [B,F]4 | %19
 d2 ^c>d e2 d2 | dc [_EB]2 G,2 C2 | [Ec]2 [EB]2 [EA]2 E2 | D2 E2 F2 BA | G2 ec d2 B2 | %24
[M:3/4] [Ec]6 |] %25
V:2
 z4 z2 G,2 | C2 B,A, G,2 E,2 | F,G,A,B, C2 [C,C]2 | [D,B,]3 [D,B,] [D,A,]2 [D,C]2 | %4
 [G,B,F]4 [G,B,F]2 G,2 | C2 B,[K:bass]A, G,2 E,2 | F,G,A,B, C2 C,2 | z2 .B,2 z4 | %8
[M:9/8] G,3- G, G,2- G, G,2 |[M:4/4][K:treble] F4 z4 | z d z A [C,C]2 [C,C]2 | %11
 [G,B,]2 z[K:treble] F [G,DF]2 [G,B,F]2 | [C,C]4 [C,C]2 G,2 | C2 EC A,2 A,2 | A,2 CA, F,2 F,2 | %15
 E,3 E, C,2 D,2 |[M:5/4] [E,A,C]4 [E,^G,B,]6 |[M:4/4] [C,G,]2 [G,,G,]2 [C,G,]2 [G,,G,]2 | %18
 [D,G,B,]2 z z/ G/ D,2 G,,2 | [G,B,F]2 E>F [G,B,G]2 [G,B,F]2 | [C,G,]2 z z/ A/ C,2 C,2 | %21
 [C,G,]2 [G,,G,]2 [C,G,]2 [E,G,C]2 | [F,A,]2 [E,A,^C]2 [D,A,D]2 [^F,=C_E][F,CE] | %23
 [G,CE]2 [G,CE]2 [G,B,F]2 [G,DF]2 |[M:3/4][K:bass] [C,C]6 |] %25
V:3
 x8 | x8 | x8 | x8 | x8 | x8 | x8 | [DGB]2 G-[GB] [C^FA]2 [DFB]2 |[M:9/8] x9 |[M:4/4] d4 z4 | x8 | %11
 [Fd]4 z4 | x8 | x8 | x8 | x8 |[M:5/4] x10 |[M:4/4] x8 | F>G [G,B,F]2 G,2 G,2 | x8 | E2 z2 [=EG]4 | %21
 x8 | x8 | x8 |[M:3/4] x6 |] %25
V:4
 x8 | x8 | x8 | x8 | x8 | x3[K:bass] x5 | x8 | D,2 D,-[D,D] D,2 D,2 |[M:9/8] x9 | %9
[M:4/4][K:treble] [G,B,]2 z F [G,B,F]2 [G,B,F]2 | [C,C]2 C,2 z4 | z2 G,2[K:treble] z4 | x8 | x8 | %14
 x8 | x8 |[M:5/4] x10 |[M:4/4] x8 | z2 G,,2 z4 | z2 [G,B,]2 z4 | z2 [C,^F,]2 z4 | x8 | x8 | x8 | %24
[M:3/4][K:bass] x6 |] %25
V:5
 x8 | x8 | x8 | x8 | x8 | x8 | x8 | x8 |[M:9/8] x9 |[M:4/4] z2 B,2 z4 | x8 | z2 B,2 z4 | x8 | x8 | %14
 x8 | x8 |[M:5/4] x10 |[M:4/4] x8 | x8 | x8 | x8 | x8 | x8 | x8 |[M:3/4] x6 |] %25
V:6
 x8 | x8 | x8 | x8 | x8 | x3[K:bass] x5 | x8 | x8 |[M:9/8] x9 |[M:4/4][K:treble] z2 G,2 z4 | x8 | %11
 x3[K:treble] x5 | x8 | x8 | x8 | x8 |[M:5/4] x10 |[M:4/4] x8 | x8 | x8 | x8 | x8 | x8 | x8 | %24
[M:3/4][K:bass] x6 |] %25

